!!!COM: Music21
!!!OTL: slide_Willie-Reidys-Favourite
!!!OMV: slide_Willie-Reidys-Favourite
**kern
*clefG2
*k[f#c#]
*D:
*M12/8
=1
4f#
8d
8f#L
8g
8aJ
4f#
8d
8f#L
8a
8f#J
=
8eL
8g
8eJ
8eL
8f#
8gJ
4e
8d
4e
8a
=
4f#
8d
8f#L
8g
8aJ
4f#
8d
8f#L
8a
8f#J
!!linebreak:original
=
4e
8e
8gL
8f#
8eJ
4.d
4d
8e
=||
*M12/8
4f#
8d
8f#L
8g
8aJ
4f#
8d
8f#L
8a
8f#J
=
8eL
8g
8eJ
8eL
8f#
8gJ
4e
8d
4e
8a
!!linebreak:original
=
4f#
8d
8f#L
8g
8aJ
4f#
8d
8f#L
8a
8f#J
=
4e
8e
8gL
8f#
8eJ
4.d
4b
8cc#
=||
4.dd
4.a
8ddL
8cc#
8ddJ
4a
8b
=
8cc#L
8b
8cc#J
4e
8e
8cc#L
8b
8cc#J
4e
8e
!!linebreak:original
=
4dd
8dd
8aL
8b
8cc#J
4dd
8ee
8ff#L
8ee
8ddJ
=
8eeL
8cc#
8aJ
8gL
8f#
8eJ
4.d
4b
8cc#
=||
4.dd
4.a
8ddL
8cc#
8ddJ
4a
8b
=
8cc#L
8b
8cc#J
4e
8e
8cc#L
8b
8cc#J
4e
8e
!!linebreak:original
=
4dd
8dd
8aL
8b
8cc#J
4dd
8ee
8ff#L
8ee
8ddJ
=
8eeL
8cc#
8aJ
8gL
8f#
8eJ
4.d
4d
8e
=
*-
